X: 37
T: Nightingale
O: No 37 Pages 14-15 William Clarke of Feltwell MS 1858
Z: Anahata <anahata@treewind.co.uk>
N: bars added at beginning of B and C parts
M: 2/4
L: 1/8
K: G
D | G>BAF | GB d2 | G>BAF | GB d2 | BB c2 |BB c2 | BdcB| AAA :|
|: z | d3^c | d3^c | dfaf | dddf | g3d | B3d | BGBd | ggg :|
|: z | Bcde | d^cdB | ABcd | cBcA | Bcde | d^cdB | AA FF | GGG :|

